src/pos-icons/badge-account-alert.svg

<svg height="24" viewBox="0 0 24 24" width="24" xmlns="http://www.w3.org/2000/svg"><path d="m15 3h-3v3h-4v-3h-3a2 2 0 0 0 -2 2v16a2 2 0 0 0 2 2h10a2 2 0 0 0 2-2v-16a2 2 0 0 0 -2-2m-5 5a2 2 0 0 1 2 2 2 2 0 0 1 -2 2 2 2 0 0 1 -2-2 2 2 0 0 1 2-2m4 8h-8v-1c0-1.33 2.67-2 4-2s4 .67 4 2zm-3-11h-2v-4h2zm3 14h-8v-1h8zm-4 2h-4v-1h4zm9-9v-5h2v5zm0 4v-2h2v2z"/></svg>

<?xml version="1.0" encoding="UTF-8"?><!DOCTYPE svg PUBLIC "-//W3C//DTD SVG 1.1//EN" "http://www.w3.org/Graphics/SVG/1.1/DTD/svg11.dtd"><svg xmlns="http://www.w3.org/2000/svg" xmlns:xlink="http://www.w3.org/1999/xlink" version="1.1" id="mdi-badge-account-alert" width="24" height="24" viewBox="0 0 24 24"><path d="M15,3H12V6H8V3H5A2,2 0 0,0 3,5V21A2,2 0 0,0 5,23H15A2,2 0 0,0 17,21V5A2,2 0 0,0 15,3M10,8A2,2 0 0,1 12,10A2,2 0 0,1 10,12A2,2 0 0,1 8,10A2,2 0 0,1 10,8M14,16H6V15C6,13.67 8.67,13 10,13C11.33,13 14,13.67 14,15V16M11,5H9V1H11V5M14,19H6V18H14V19M10,21H6V20H10V21M19,12V7H21V12H19M19,16V14H21V16H19Z" /></svg>
